X: 2
T: Out On The Ocean
R: jig
M: 6/8
L: 1/8
K: Gmaj
|: F/E/ |D2 B BAG | B/c/dB ABA | GED G2 A | BcB AGE |
D2 B BAG | BdB A2 B | GED G2 A | BGF G2 :|
d |efe edB | ege edB | ded dBA | ded dBA |
G2 A B2 d | ege dBA | GED G2 A | BGF GB/c/d |
e2 e edB | e/f/ge edB | d2 d dd/e/f | gfe dBA |
G2 A B2 d | e/f/ge dBA | GED G2 A | BGF G2 |]


Tune 108	Setting 20578

